epam-assets/icon-sources/18/content-code_braces.svg

<svg width="18" height="18" viewBox="0 0 18 18" fill="none" xmlns="http://www.w3.org/2000/svg">
<g id="18/content-code_braces">
<path id="icon" fill-rule="evenodd" clip-rule="evenodd" d="M6 2.25C5.17157 2.25 4.5 2.92157 4.5 3.75V6.75C4.5 7.57843 3.82843 8.25 3 8.25H2.25V9.75H3C3.82843 9.75 4.5 10.4216 4.5 11.25V14.25C4.5 15.0784 5.17157 15.75 6 15.75H7.5V14.25H6V10.5C6 9.67157 5.32843 9 4.5 9C5.32843 9 6 8.32843 6 7.5V3.75H7.5V2.25M12 2.25C12.8284 2.25 13.5 2.92157 13.5 3.75V6.75C13.5 7.57843 14.1716 8.25 15 8.25H15.75V9.75H15C14.1716 9.75 13.5 10.4216 13.5 11.25V14.25C13.5 15.0784 12.8284 15.75 12 15.75H10.5V14.25H12V10.5C12 9.67157 12.6716 9 13.5 9C12.6716 9 12 8.32843 12 7.5V3.75H10.5V2.25H12Z" fill="#6C6F80"/>
</g>
</svg>

<svg xmlns="http://www.w3.org/2000/svg" width="18" height="18" fill="none" viewBox="0 0 18 18">
  <path fill="#6C6F80" fill-rule="evenodd" d="M6 2.25a1.5 1.5 0 0 0-1.5 1.5v3A1.5 1.5 0 0 1 3 8.25h-.75v1.5H3a1.5 1.5 0 0 1 1.5 1.5v3a1.5 1.5 0 0 0 1.5 1.5h1.5v-1.5H6V10.5A1.5 1.5 0 0 0 4.5 9 1.5 1.5 0 0 0 6 7.5V3.75h1.5v-1.5m4.5 0a1.5 1.5 0 0 1 1.5 1.5v3a1.5 1.5 0 0 0 1.5 1.5h.75v1.5H15a1.5 1.5 0 0 0-1.5 1.5v3a1.5 1.5 0 0 1-1.5 1.5h-1.5v-1.5H12V10.5A1.5 1.5 0 0 1 13.5 9 1.5 1.5 0 0 1 12 7.5V3.75h-1.5v-1.5H12Z" clip-rule="evenodd"/>
</svg>
